dist/svg/u1F3E7.svg

<?xml version="1.0" encoding="UTF-8"?><svg id="a" xmlns="http://www.w3.org/2000/svg" viewBox="0 0 40 40"><g><rect x="3.5" y="3.5" width="33" height="33" rx="8" ry="8" fill="#007ff2"/><g><path d="M9.842,22.321l-.72,2.074h-1.979l3.311-8.947h1.919l3.298,8.947h-1.979l-.707-2.074h-3.143Zm2.591-1.607l-1.008-2.938-1.02,2.938h2.027Z" fill="#fff"/><path d="M19.465,24.396h-1.906v-7.279h-2.604v-1.668h7.112v1.668h-2.603v7.279Z" fill="#fff"/><path d="M24.974,24.396h-1.895V15.448h2.11l2.519,6.645,2.507-6.645h2.111v8.947h-1.896l-.012-5.241-2.063,5.241h-1.307l-2.075-5.241v5.241Z" fill="#fff"/></g></g><rect width="40" height="40" fill="none"/></svg>

<svg id="Layer_1" data-name="Layer 1" xmlns="http://www.w3.org/2000/svg" viewBox="0 0 40 40"><defs><style>.cls-1{fill:#007ff2;}.cls-2{fill:#fff;}.cls-3{fill:none;}</style></defs><rect class="cls-1" x="3.5" y="3.5" width="33" height="33" rx="8"/><path class="cls-2" d="M9.842,22.321,9.122,24.4H7.144l3.31-8.948h1.919l3.3,8.948h-1.98l-.707-2.075Zm2.591-1.607-1.008-2.939-1.02,2.939Z"/><path class="cls-2" d="M19.465,24.4H17.559v-7.28h-2.6V15.448h7.112v1.668h-2.6Z"/><path class="cls-2" d="M24.974,24.4H23.079V15.448h2.11l2.519,6.645,2.507-6.645h2.111V24.4H30.431l-.012-5.242L28.355,24.4H27.049l-2.075-5.242Z"/><rect class="cls-3" width="40" height="40"/></svg>
